;FLAVOR:Marlin
;TIME:4472
;Filament used: 3.86183m
;Layer height: 0.2
;MINX:45.151
;MINY:50.286
;MINZ:0.3
;MAXX:148
;MAXY:148
;MAXZ:6.1
;Generated with Cura_SteamEngine 5.4.0
M140 S60
M105
M190 S60
M104 S225
M105
M109 S225
M82 ;absolute extrusion mode
M140 S[first_layer_bed_temperature]; Heat bed
M104 S[first_layer_temperature
            ]; Heat extruder
G21 ;metric values
G90 ;absolute positioning
M82 ;set extruder to absolute mode
G28 ; Home all axes
G92 E0 ; Reset Extruder
M420 S1 ; Enable Bed Levelling Mesh
M190 S[first_layer_bed_temperature
            ]; Wait for bed to get up to temperature
M109 S[first_layer_temperature
            ]; Wait for extruder to get up to temperature
G1 Z2.0 F3000 ; Move Z Axis up little to prevent scratching of Heat Bed
G1 X2 Y20 Z0.3 F5000.0 ; Move to start position
G1 X2 Y200.0 Z0.3 F1500.0 E15 ; Draw the first line
G1 X2.4 Y200.0 Z0.3 F5000.0 ; Move to side a little
G1 X2.4 Y20 Z0.3 F1500.0 E30 ; Draw the second line
G92 E0 ; Reset Extruder
G1 Z2.0 F3000 ; Move Z Axis up little to prevent scratching of Heat Bed
G1 F2400 E-1
G1 X5 Y20 Z0.3 F5000.0 ; Move over to prevent blob squish
G92 E0
G92 E0
G1 F1500 E-6.5
;LAYER_COUNT:30
;LAYER:0
M107
G0 F3600 X69.31 Y61.822 Z0.3
;TYPE:SKIRT
G1 F1500 E0
G1 X70.552 Y60.821 E0.07958
G1 X72.341 Y59.933 E0.17923
G1 X74.03 Y59.709 E0.26423
G1 X76.689 Y59.689 E0.39689
G1 X77.596 Y59.876 E0.44309
G1 X78.278 Y59.534 E0.48116
G1 X79.961 Y59.31 E0.56586
G1 X82.319 Y59.3 E0.6835
G1 X82.319 Y56.747 E0.81087
G1 X82.701 Y54.895 E0.90522
G1 X83.594 Y53.285 E0.99707
G1 X84.268 Y52.419 E1.05182
G1 X85.51 Y51.418 E1.1314
G1 X87.299 Y50.53 E1.23104
G1 X88.988 Y50.306 E1.31605
G1 X91.641 Y50.286 E1.44841
G1 X93.514 Y50.669 E1.54379
G1 X95.175 Y51.597 E1.63871
G1 X95.988 Y52.234 E1.69024
G1 X96.985 Y53.472 E1.76954
G1 X97.871 Y55.254 E1.86883
G1 X98.095 Y56.928 E1.95309
G1 X98.105 Y59.286 E2.07073
G1 X100.658 Y59.286 E2.1981
G1 X102.51 Y59.668 E2.29244
G1 X104.12 Y60.561 E2.38429
G1 X104.986 Y61.235 E2.43904
G1 X105.987 Y62.477 E2.51862
G1 X106.875 Y64.266 E2.61827
G1 X107.099 Y65.955 E2.70327
G1 X107.119 Y68.608 E2.83563
G1 X106.736 Y70.481 E2.93101
G1 X105.808 Y72.142 E3.02594
G1 X105.171 Y72.955 E3.07746
G1 X103.874 Y74 E3.16056
G1 X141.539 Y74 E5.03968
G1 X143.394 Y74.382 E5.13416
G1 X145.056 Y75.311 E5.22916
G1 X145.869 Y75.948 E5.28068
G1 X146.866 Y77.185 E5.35995
G1 X147.752 Y78.963 E5.45906
G1 X147.956 Y80.362 E5.52959
G1 X148 Y141.539 E8.58172
G1 X147.618 Y143.394 E8.67621
G1 X146.689 Y145.056 E8.7712
G1 X146.052 Y145.869 E8.82273
G1 X144.815 Y146.866 E8.902
G1 X143.037 Y147.752 E9.0011
G1 X141.638 Y147.956 E9.07164
G1 X80.461 Y148 E12.12377
G1 X78.606 Y147.618 E12.21826
G1 X76.944 Y146.689 E12.31325
G1 X76.131 Y146.052 E12.36478
G1 X75.134 Y144.814 E12.44408
G1 X74.248 Y143.036 E12.54319
G1 X74.072 Y141.805 E12.60523
G1 X73.116 Y142.575 E12.66647
G1 X71.327 Y143.463 E12.76612
G1 X69.638 Y143.687 E12.85112
G1 X66.985 Y143.707 E12.98348
G1 X65.112 Y143.324 E13.07886
G1 X63.451 Y142.396 E13.17378
G1 X62.638 Y141.759 E13.22531
G1 X61.641 Y140.521 E13.30461
G1 X60.755 Y138.739 E13.4039
G1 X60.531 Y137.065 E13.48816
G1 X60.521 Y134.707 E13.6058
G1 X57.968 Y134.707 E13.73317
G1 X56.116 Y134.325 E13.82751
G1 X54.506 Y133.432 E13.91937
G1 X53.64 Y132.758 E13.97411
G1 X52.639 Y131.516 E14.0537
G1 X51.751 Y129.727 E14.15334
G1 X51.527 Y128.038 E14.23834
G1 X51.507 Y125.385 E14.37071
G1 X51.889 Y123.514 E14.46598
G1 X52.782 Y121.906 E14.55774
G1 X53.455 Y121.04 E14.61246
G1 X54.173 Y120.461 E14.65848
G1 X54.164 Y118.699 E14.74638
G1 X51.612 Y118.699 E14.8737
G1 X49.76 Y118.317 E14.96805
G1 X48.15 Y117.424 E15.0599
G1 X47.284 Y116.75 E15.11465
G1 X46.283 Y115.508 E15.19423
G1 X45.395 Y113.719 E15.29387
G1 X45.171 Y112.03 E15.37887
G1 X45.151 Y109.377 E15.51124
G1 X45.534 Y107.504 E15.60662
G1 X46.462 Y105.843 E15.70154
G1 X47.099 Y105.03 E15.75307
G1 X48.337 Y104.033 E15.83237
G1 X50.119 Y103.147 E15.93166
G1 X51.793 Y102.923 E16.01592
G1 X54.151 Y102.913 E16.13356
G1 X54.151 Y100.719 E16.24302
G1 X53.805 Y100.425 E16.26567
G1 X52.88 Y99.275 E16.3393
G1 X51.988 Y97.476 E16.43948
G1 X51.764 Y95.787 E16.52448
G1 X51.744 Y93.134 E16.65685
G1 X52.127 Y91.261 E16.75222
G1 X53.055 Y89.6 E16.84715
G1 X53.692 Y88.787 E16.89868
G1 X54.93 Y87.79 E16.97798
G1 X56.712 Y86.904 E17.07726
G1 X58.386 Y86.68 E17.16153
G1 X60.744 Y86.67 E17.27917
G1 X60.744 Y84.117 E17.40654
G1 X60.988 Y82.932 E17.4669
G1 X60.474 Y82.523 E17.49967
G1 X59.498 Y81.308 E17.57742
G1 X58.605 Y79.509 E17.67762
G1 X58.381 Y77.82 E17.76262
G1 X58.361 Y75.167 E17.89499
G1 X58.744 Y73.294 E17.99037
G1 X59.672 Y71.633 E18.08529
G1 X60.309 Y70.82 E18.13682
G1 X61.547 Y69.823 E18.21612
G1 X63.329 Y68.937 E18.31541
G1 X65.003 Y68.713 E18.39967
G1 X67.361 Y68.703 E18.51731
G1 X67.361 Y66.15 E18.64468
G1 X67.743 Y64.298 E18.73902
G1 X68.636 Y62.688 E18.83087
G1 X69.31 Y61.822 E18.88562
G0 F3600 X69.6 Y62.102
G1 F1500 X70.768 Y61.16 E18.96048
G1 X72.458 Y60.321 E19.05462
G1 X74.082 Y60.106 E19.13634
G1 X76.648 Y60.089 E19.26437
G1 X77.651 Y60.296 E19.31546
G1 X78.399 Y59.921 E19.3572
G1 X79.963 Y59.71 E19.43594
G1 X82.719 Y59.698 E19.57344
G1 X82.719 Y56.789 E19.71857
G1 X83.081 Y55.034 E19.80797
G1 X83.91 Y53.531 E19.8936
G1 X84.558 Y52.699 E19.94622
G1 X85.726 Y51.757 E20.02108
G1 X87.416 Y50.918 E20.11521
G1 X89.04 Y50.703 E20.19694
G1 X91.602 Y50.686 E20.32476
G1 X93.373 Y51.048 E20.41494
G1 X94.928 Y51.912 E20.50369
G1 X95.707 Y52.523 E20.55309
G1 X96.646 Y53.688 E20.62774
G1 X97.484 Y55.373 E20.72163
G1 X97.695 Y56.93 E20.80002
G1 X97.707 Y59.686 E20.93751
G1 X100.616 Y59.686 E21.08264
G1 X102.371 Y60.048 E21.17204
G1 X103.874 Y60.877 E21.25768
G1 X104.706 Y61.525 E21.31029
G1 X105.648 Y62.693 E21.38515
G1 X106.487 Y64.383 E21.47929
G1 X106.702 Y66.007 E21.56102
G1 X106.719 Y68.569 E21.68884
G1 X106.357 Y70.34 E21.77902
G1 X105.493 Y71.895 E21.86777
G1 X104.882 Y72.674 E21.91716
G1 X103.717 Y73.613 E21.99181
G1 X102.135 Y74.4 E22.07997
G1 X141.497 Y74.4 E24.04375
G1 X143.253 Y74.762 E24.13319
G1 X144.809 Y75.626 E24.22199
G1 X145.588 Y76.237 E24.27138
G1 X146.527 Y77.402 E24.34603
G1 X147.365 Y79.083 E24.43974
G1 X147.56 Y80.42 E24.50715
G1 X147.6 Y141.497 E27.55429
G1 X147.238 Y143.253 E27.64374
G1 X146.374 Y144.809 E27.73254
G1 X145.763 Y145.588 E27.78193
G1 X144.598 Y146.527 E27.85658
G1 X142.917 Y147.365 E27.95029
G1 X141.58 Y147.56 E28.0177
G1 X80.503 Y147.6 E31.06484
G1 X78.747 Y147.238 E31.15429
G1 X77.191 Y146.374 E31.24309
G1 X76.412 Y145.763 E31.29248
G1 X75.473 Y144.598 E31.36713
G1 X74.635 Y142.916 E31.46089
G1 X74.436 Y141.524 E31.53104
G1 X74.432 Y140.831 E31.56561
G1 X74.068 Y141.295 E31.59504
G1 X72.9 Y142.236 E31.66987
G1 X71.21 Y143.075 E31.764
G1 X69.586 Y143.29 E31.84573
G1 X67.024 Y143.307 E31.97355
G1 X65.253 Y142.945 E32.06373
G1 X63.698 Y142.081 E32.15248
G1 X62.919 Y141.47 E32.20187
G1 X61.98 Y140.305 E32.27653
G1 X61.142 Y138.62 E32.37041
G1 X60.931 Y137.063 E32.4488
G1 X60.919 Y134.307 E32.5863
G1 X58.01 Y134.307 E32.73143
G1 X56.255 Y133.945 E32.82083
G1 X54.752 Y133.116 E32.90647
G1 X53.92 Y132.468 E32.95908
G1 X52.978 Y131.3 E33.03394
G1 X52.139 Y129.61 E33.12807
G1 X51.924 Y127.986 E33.2098
G1 X51.907 Y125.424 E33.33762
G1 X52.269 Y123.653 E33.42781
G1 X53.098 Y122.152 E33.51335
G1 X53.745 Y121.32 E33.56594
G1 X54.574 Y120.651 E33.61908
G1 X54.562 Y118.299 E33.73643
G1 X51.654 Y118.299 E33.88151
G1 X49.899 Y117.937 E33.97091
G1 X48.396 Y117.108 E34.05654
G1 X47.564 Y116.46 E34.10915
G1 X46.622 Y115.292 E34.18402
G1 X45.783 Y113.602 E34.27815
G1 X45.568 Y111.978 E34.35988
G1 X45.551 Y109.416 E34.4877
G1 X45.913 Y107.645 E34.57788
G1 X46.777 Y106.09 E34.66663
G1 X47.388 Y105.311 E34.71603
G1 X48.553 Y104.372 E34.79068
G1 X50.238 Y103.534 E34.88456
G1 X51.795 Y103.323 E34.96295
G1 X54.551 Y103.311 E35.10045
G1 X54.551 Y100.529 E35.23925
G1 X54.117 Y100.174 E35.26722
G1 X53.218 Y99.056 E35.33879
G1 X52.376 Y97.359 E35.4333
G1 X52.161 Y95.735 E35.51503
G1 X52.144 Y93.173 E35.64286
G1 X52.506 Y91.402 E35.73304
G1 X53.37 Y89.847 E35.82179
G1 X53.981 Y89.068 E35.87118
G1 X55.146 Y88.129 E35.94583
G1 X56.831 Y87.291 E36.03972
G1 X58.388 Y87.08 E36.11811
G1 X61.144 Y87.068 E36.25561
G1 X61.144 Y84.159 E36.40074
G1 X61.429 Y82.772 E36.47138
G1 X60.76 Y82.239 E36.51406
G1 X59.836 Y81.089 E36.58765
G1 X58.993 Y79.392 E36.68219
G1 X58.778 Y77.768 E36.76392
G1 X58.761 Y75.206 E36.89174
G1 X59.123 Y73.435 E36.98192
G1 X59.987 Y71.88 E37.07067
G1 X60.598 Y71.101 E37.12006
G1 X61.763 Y70.162 E37.19472
G1 X63.448 Y69.324 E37.2886
G1 X65.005 Y69.113 E37.36699
G1 X67.761 Y69.101 E37.50449
G1 X67.761 Y66.192 E37.64962
G1 X68.123 Y64.437 E37.73902
G1 X68.952 Y62.934 E37.82466
G1 X69.6 Y62.102 E37.87727
G0 F3600 X69.886 Y62.384
G1 F1500 X70.984 Y61.499 E37.94763
G1 X72.575 Y60.709 E38.03625
G1 X74.134 Y60.503 E38.1147
G1 X76.607 Y60.489 E38.23809
G1 X77.706 Y60.716 E38.29407
G1 X78.52 Y60.308 E38.3395
G1 X79.965 Y60.11 E38.41226
G1 X83.119 Y60.096 E38.56962
G1 X83.119 Y56.831 E38.73251
G1 X83.461 Y55.172 E38.81702
G1 X84.26 Y53.724 E38.89953
G1 X84.844 Y52.981 E38.94668
G1 X85.942 Y52.096 E39.01703
G1 X87.533 Y51.306 E39.10566
G1 X89.092 Y51.1 E39.18411
G1 X91.562 Y51.086 E39.30734
G1 X93.234 Y51.428 E39.39248
G1 X94.681 Y52.227 E39.47495
G1 X95.424 Y52.809 E39.52204
G1 X96.309 Y53.908 E39.59243
G1 X97.097 Y55.492 E39.6807
G1 X97.295 Y56.932 E39.75322
G1 X97.309 Y60.086 E39.91057
G1 X100.574 Y60.086 E40.07346
G1 X102.233 Y60.428 E40.15797
G1 X103.681 Y61.227 E40.24048
G1 X104.424 Y61.811 E40.28763
G1 X105.309 Y62.909 E40.35799
G1 X106.099 Y64.5 E40.44661
G1 X106.305 Y66.059 E40.52506
G1 X106.319 Y68.529 E40.6483
G1 X105.977 Y70.201 E40.73344
G1 X105.178 Y71.648 E40.8159
G1 X104.596 Y72.391 E40.86299
G1 X103.497 Y73.276 E40.93339
G1 X101.913 Y74.064 E41.02165
G1 X100.473 Y74.262 E41.09417
G1 X97.319 Y74.276 E41.25153
G1 X97.319 Y74.8 E41.27767
G1 X141.455 Y74.8 E43.47962
G1 X143.114 Y75.142 E43.56413
G1 X144.562 Y75.941 E43.64664
G1 X145.305 Y76.523 E43.69373
G1 X146.19 Y77.622 E43.76412
G1 X146.978 Y79.203 E43.85225
G1 X147.164 Y80.478 E43.91654
G1 X147.2 Y141.455 E46.95869
G1 X146.858 Y143.114 E47.0432
G1 X146.059 Y144.562 E47.12571
G1 X145.477 Y145.305 E47.1728
G1 X144.378 Y146.19 E47.24319
G1 X142.797 Y146.978 E47.33132
G1 X141.522 Y147.164 E47.39561
G1 X80.545 Y147.2 E50.43776
G1 X78.886 Y146.858 E50.52227
G1 X77.438 Y146.059 E50.60478
G1 X76.695 Y145.477 E50.65187
G1 X75.81 Y144.378 E50.72226
G1 X75.022 Y142.797 E50.8104
G1 X74.836 Y141.522 E50.87468
G1 X74.825 Y139.441 E50.9785
G1 X74.366 Y140.269 E51.02573
G1 X73.782 Y141.012 E51.07288
G1 X72.684 Y141.897 E51.14324
G1 X71.093 Y142.687 E51.23186
G1 X69.534 Y142.893 E51.31032
G1 X67.064 Y142.907 E51.43355
G1 X65.392 Y142.565 E51.51869
G1 X63.945 Y141.766 E51.60116
G1 X63.202 Y141.184 E51.64824
G1 X62.317 Y140.085 E51.71864
G1 X61.529 Y138.501 E51.8069
G1 X61.331 Y137.061 E51.87942
G1 X61.317 Y133.907 E52.03678
G1 X58.052 Y133.907 E52.19967
G1 X56.393 Y133.565 E52.28418
G1 X54.945 Y132.766 E52.36669
G1 X54.202 Y132.182 E52.41384
G1 X53.317 Y131.084 E52.48419
G1 X52.527 Y129.493 E52.57282
G1 X52.321 Y127.934 E52.65127
G1 X52.307 Y125.464 E52.7745
G1 X52.649 Y123.792 E52.85964
G1 X53.448 Y122.345 E52.94211
G1 X54.032 Y121.602 E52.98926
G1 X54.975 Y120.841 E53.04971
G1 X54.96 Y117.899 E53.19649
G1 X51.696 Y117.899 E53.35933
G1 X50.037 Y117.557 E53.44384
G1 X48.589 Y116.758 E53.52635
G1 X47.846 Y116.174 E53.5735
G1 X46.961 Y115.076 E53.64386
G1 X46.171 Y113.485 E53.73248
G1 X45.965 Y111.926 E53.81093
G1 X45.951 Y109.456 E53.93417
G1 X46.293 Y107.784 E54.01931
G1 X47.092 Y106.337 E54.10177
G1 X47.674 Y105.594 E54.14886
G1 X48.773 Y104.709 E54.21926
G1 X50.357 Y103.921 E54.30752
G1 X51.797 Y103.723 E54.38004
G1 X54.951 Y103.709 E54.5374
G1 X54.951 Y100.53 E54.696
G1 X54.976 Y100.355 E54.70482
G1 X54.429 Y99.923 E54.73959
G1 X53.556 Y98.837 E54.80911
G1 X52.764 Y97.242 E54.89795
G1 X52.558 Y95.683 E54.97641
G1 X52.544 Y93.213 E55.09964
G1 X52.886 Y91.541 E55.18478
G1 X53.685 Y90.094 E55.26725
G1 X54.267 Y89.351 E55.31433
G1 X55.366 Y88.466 E55.38473
G1 X56.95 Y87.678 E55.473
G1 X58.39 Y87.48 E55.54551
G1 X61.544 Y87.466 E55.70287
G1 X61.544 Y84.201 E55.86576
G1 X61.871 Y82.612 E55.9467
G1 X61.043 Y81.953 E55.99949
G1 X60.175 Y80.872 E56.06866
G1 X59.381 Y79.275 E56.15764
G1 X59.175 Y77.716 E56.23609
G1 X59.161 Y75.246 E56.35932
G1 X59.503 Y73.574 E56.44447
G1 X60.302 Y72.127 E56.52693
G1 X60.884 Y71.384 E56.57402
G1 X61.983 Y70.499 E56.64442
G1 X63.567 Y69.711 E56.73268
G1 X65.007 Y69.513 E56.8052
G1 X68.161 Y69.499 E56.96255
G1 X68.161 Y66.234 E57.12544
G1 X68.503 Y64.575 E57.20995
G1 X69.302 Y63.127 E57.29246
G1 X69.886 Y62.384 E57.33961
G0 F3600 X70.174 Y62.665
G1 F1500 X71.2 Y61.838 E57.40536
G1 X72.692 Y61.097 E57.48847
G1 X74.186 Y60.9 E57.56365
G1 X76.566 Y60.889 E57.68239
G1 X77.761 Y61.136 E57.74327
G1 X78.641 Y60.695 E57.79237
G1 X79.967 Y60.51 E57.85917
G1 X83.519 Y60.494 E58.03638
G1 X83.519 Y56.873 E58.21703
G1 X83.841 Y55.312 E58.29655
G1 X84.575 Y53.971 E58.37282
G1 X85.132 Y53.262 E58.4178
G1 X86.158 Y52.435 E58.48355
G1 X87.65 Y51.694 E58.56666
G1 X89.144 Y51.497 E58.64184
G1 X91.522 Y51.486 E58.76048
G1 X93.094 Y51.808 E58.84054
G1 X94.434 Y52.542 E58.91676
G1 X95.143 Y53.098 E58.96171
G1 X95.97 Y54.124 E59.02746
G1 X96.71 Y55.611 E59.11032
G1 X96.895 Y56.934 E59.17697
G1 X96.911 Y60.486 E59.35418
G1 X100.532 Y60.486 E59.53484
G1 X102.093 Y60.808 E59.61435
G1 X103.434 Y61.542 E59.69062
G1 X104.143 Y62.099 E59.73561
G1 X104.97 Y63.125 E59.80135
G1 X105.711 Y64.617 E59.88446
G1 X105.908 Y66.111 E59.95964
G1 X105.919 Y68.489 E60.07828
G1 X105.597 Y70.061 E60.15834
G1 X104.863 Y71.401 E60.23456
G1 X104.307 Y72.11 E60.27952
G1 X103.281 Y72.937 E60.34526
G1 X101.794 Y73.677 E60.42813
G1 X100.471 Y73.862 E60.49477
G1 X96.919 Y73.878 E60.67199
G1 X96.919 Y75.2 E60.73794
G1 X141.413 Y75.2 E62.95775
G1 X142.974 Y75.522 E63.03727
G1 X144.315 Y76.256 E63.11354
G1 X145.024 Y76.812 E63.15849
G1 X145.851 Y77.838 E63.22424
G1 X146.591 Y79.323 E63.30701
G1 X146.768 Y80.536 E63.36817
G1 X146.8 Y141.413 E66.40534
G1 X146.478 Y142.974 E66.48486
G1 X145.744 Y144.315 E66.56113
G1 X145.188 Y145.024 E66.60608
G1 X144.162 Y145.851 E66.67182
G1 X142.677 Y146.591 E66.7546
G1 X141.464 Y146.768 E66.81576
G1 X80.587 Y146.8 E69.85292
G1 X79.026 Y146.478 E69.93244
G1 X77.685 Y145.744 E70.00871
G1 X76.976 Y145.188 E70.05366
G1 X76.149 Y144.162 E70.11941
G1 X75.409 Y142.677 E70.20218
G1 X75.232 Y141.464 E70.26334
G1 X75.204 Y133.507 E70.66032
G1 X75.107 Y133.507 E70.66516
G1 X75.107 Y137.12 E70.84541
G1 X74.785 Y138.681 E70.92493
G1 X74.051 Y140.022 E71.0012
G1 X73.494 Y140.731 E71.04618
G1 X72.468 Y141.558 E71.11193
G1 X70.976 Y142.299 E71.19504
G1 X69.482 Y142.496 E71.27022
G1 X67.104 Y142.507 E71.38886
G1 X65.532 Y142.185 E71.46892
G1 X64.192 Y141.451 E71.54514
G1 X63.483 Y140.895 E71.59009
G1 X62.656 Y139.869 E71.65584
G1 X61.916 Y138.382 E71.7387
G1 X61.731 Y137.059 E71.80535
G1 X61.715 Y133.507 E71.98256
G1 X58.094 Y133.507 E72.16321
G1 X56.533 Y133.185 E72.24273
G1 X55.192 Y132.451 E72.319
G1 X54.483 Y131.894 E72.36398
G1 X53.656 Y130.868 E72.42973
G1 X52.915 Y129.376 E72.51284
G1 X52.718 Y127.882 E72.58802
G1 X52.707 Y125.504 E72.70666
G1 X53.029 Y123.932 E72.78672
G1 X53.763 Y122.592 E72.86294
G1 X54.32 Y121.883 E72.90792
G1 X55.245 Y121.137 E72.96721
G1 X55.376 Y121.058 E72.97484
G1 X55.358 Y117.499 E73.1524
G1 X51.738 Y117.499 E73.33301
G1 X50.177 Y117.177 E73.41253
G1 X48.836 Y116.443 E73.48879
G1 X48.127 Y115.886 E73.53378
G1 X47.3 Y114.86 E73.59952
G1 X46.559 Y113.368 E73.68263
G1 X46.362 Y111.874 E73.75781
G1 X46.351 Y109.496 E73.87645
G1 X46.673 Y107.924 E73.95651
G1 X47.407 Y106.584 E74.03274
G1 X47.963 Y105.875 E74.07769
G1 X48.989 Y105.048 E74.14343
G1 X50.476 Y104.308 E74.2263
G1 X51.799 Y104.123 E74.29294
G1 X55.351 Y104.107 E74.47016
G1 X55.351 Y100.53 E74.64861
G1 X55.412 Y100.189 E74.6659
G1 X54.711 Y99.636 E74.71044
G1 X53.895 Y98.62 E74.77545
G1 X53.152 Y97.125 E74.85874
G1 X52.955 Y95.631 E74.93392
